X: 43
T:McCusker
% Nottingham Music Database
S:McCusker Brothers
M:4/4
L:1/8
R:Hornpipe
K:D
P:A
A2|"D"(3ABAFA f2d2|"D"(3ABAFA f2da|"G"gfed "A"c2cd|"E7"(3efe(3dcB "A7"A4|
"D"(3ABAFA f2d2|"D"(3ABAFA f2da|"G"gfed "A7"cABc|"D"d2f2 d2:|
P:B
(3ABc|"D"dAdf a2f2|"D"dAdf a2fa|"G"gfed "A"c2cd|"E7"(3efe(3dcB "A7"A2(3ABc|
"D"dAdf a2f2|"D"dAdf a2fa|"G"gfed "A7"cABc|"D"d2f2 d2:|<end>
<start>
